X: 10560
T: Dorothy Leurs
R: jig
M: 6/8
K: Amajor
a|f>ee c>BB|A>Bc A>FF|E>AA c>ee|f>cc e2
a|f>ee c>BB|A>Bc A>FF|E>AA f2 e|c>AA A2:|
g|aaf g2 e-|e>ff f>ec|e2 f e>ce|f2 g f>ec|
aaf g2 e-|e>ff f>ec|A>ce f2 e|c>AA A2:|

